X:7
M:C
L:1/8
K:D
E>FE>D B,2 A,>B,:|
|:d>ed>c d>AA>d|B>cd>e f>BB>c|d>ed>B A>Fd>B|A>FE>D B,2 A,>B,:|
|:D>AF>A D>AF>A|E/E/E F>A B>AB>d|D>AF>A A>DF>D|
d>ed>c d>AA>d|B/A/B/c/ d/c/d/e/ f<B B>c|d>ed>B A>Fd>B|
E>FE>D B,2 A,>B||

